icons/fingerprint.svg

<svg width="24" height="24" viewBox="0 0 24 24" fill="none" xmlns="http://www.w3.org/2000/svg">
<path fill-rule="evenodd" clip-rule="evenodd" d="M14.9137 4.92577C13.9091 4.31709 12.7735 3.99918 11.6206 4C10.4678 4.00082 9.33251 4.32035 8.32873 4.93047C7.32454 5.54085 6.48549 6.4219 5.90091 7.48957C5.31619 8.55749 5.00834 9.77176 5.01155 11.0095L5.01156 11.0121L5.01156 12.0109C5.01156 12.0214 5.01139 12.032 5.01106 12.0426C4.93943 14.3039 5.21618 16.5622 5.83022 18.7299C5.98075 19.2613 5.672 19.814 5.14063 19.9646C4.60925 20.1151 4.05646 19.8063 3.90594 19.275C3.23712 16.9139 2.93526 14.4559 3.01156 11.9952V11.0134C3.0077 9.44271 3.39811 7.89619 4.14665 6.52906C4.89555 5.16129 5.97808 4.01879 7.28992 3.22142C8.60219 2.42379 10.0956 2.00109 11.6192 2C13.1428 1.99892 14.6368 2.41949 15.9501 3.21527C16.4224 3.50147 16.5733 4.1164 16.2871 4.58874C16.0009 5.06108 15.386 5.21197 14.9137 4.92577ZM17.6939 6.1497C18.1729 5.87473 18.7841 6.04011 19.059 6.51907C20.0169 8.18762 20.4289 10.1326 20.2386 12.0615V13.0097L20.2386 13.0107C20.2377 13.8959 20.4589 14.7633 20.8768 15.5251C21.1424 16.0094 20.9651 16.6172 20.4809 16.8828C19.9967 17.1484 19.3888 16.9712 19.1232 16.487C18.5415 15.4264 18.2375 14.2273 18.2386 13.0097C18.2386 13.0097 18.2386 13.0097 18.2386 13.0097C18.2386 13.0094 18.2386 13.0089 18.2386 13.0086L18.2386 12.0109C18.2386 11.9762 18.2405 11.9415 18.2441 11.907C18.4042 10.3733 18.0794 8.82965 17.3245 7.51482C17.0496 7.03585 17.2149 6.42467 17.6939 6.1497ZM11.6251 8.01695C10.8967 8.01695 10.1878 8.32017 9.65728 8.87693C9.1252 9.43534 8.81833 10.2026 8.81833 11.0121C8.81833 11.5644 8.37061 12.0121 7.81833 12.0121C7.26604 12.0121 6.81833 11.5644 6.81833 11.0121C6.81833 9.70247 7.31359 8.43734 8.20934 7.49727C9.10664 6.55556 10.3343 6.01695 11.6251 6.01695C12.9159 6.01695 14.1436 6.55556 15.0409 7.49727C15.9366 8.43734 16.4319 9.70247 16.4319 11.0121V12.0109C16.4319 13.9673 17.0368 15.866 18.1489 17.4222C18.47 17.8715 18.366 18.4961 17.9167 18.8172C17.4673 19.1383 16.8428 19.0344 16.5217 18.5851C15.1627 16.6835 14.4319 14.3767 14.4319 12.0109V11.0121C14.4319 10.2026 14.125 9.43534 13.5929 8.87693C13.0624 8.32017 12.3535 8.01695 11.6251 8.01695ZM11.6251 10.0121C12.1774 10.0121 12.6251 10.4598 12.6251 11.0121L12.6251 13.0107C12.6223 15.6733 13.3966 18.2689 14.8383 20.4483C15.1431 20.9089 15.0167 21.5293 14.5561 21.834C14.0955 22.1387 13.475 22.0124 13.1703 21.5517C11.5082 19.0393 10.6219 16.0582 10.6251 13.0091M7.70745 14.0134C8.25632 13.9522 8.75092 14.3475 8.81216 14.8964C9.0327 16.8731 9.58166 18.7925 10.433 20.5675C10.6719 21.0655 10.4618 21.6628 9.96385 21.9016C9.46588 22.1405 8.86858 21.9304 8.62973 21.4325C7.68036 19.4532 7.06972 17.3161 6.8245 15.1181C6.76326 14.5693 7.15857 14.0747 7.70745 14.0134Z" fill="black"/>
</svg>

<svg
  width="24"
  height="24"
  viewBox="0 0 24 24"
  xmlns="http://www.w3.org/2000/svg"
>
  <path
    fill-rule="evenodd"
    clip-rule="evenodd"
    d="M14.914 4.926A6.34 6.34 0 0 0 11.62 4a6.34 6.34 0 0 0-3.292.93A6.815 6.815 0 0 0 5.9 7.49a7.298 7.298 0 0 0-.89 3.52v1.033c-.072 2.26.205 4.52.82 6.687a1 1 0 0 1-1.925.545 23.996 23.996 0 0 1-.894-7.28v-.982A9.298 9.298 0 0 1 4.147 6.53 8.814 8.814 0 0 1 7.29 3.221 8.34 8.34 0 0 1 11.62 2a8.34 8.34 0 0 1 4.33 1.215 1 1 0 0 1-1.036 1.71zm2.78 1.224a1 1 0 0 1 1.365.37 9.313 9.313 0 0 1 1.18 5.542v.948c-.001.886.22 1.753.638 2.515a1 1 0 0 1-1.754.962 7.224 7.224 0 0 1-.884-3.477v-.999c0-.035.002-.07.005-.104a7.314 7.314 0 0 0-.92-4.392 1 1 0 0 1 .37-1.365zm-6.069 1.867c-.728 0-1.437.303-1.968.86a3.098 3.098 0 0 0-.839 2.135 1 1 0 1 1-2 0c0-1.31.496-2.575 1.391-3.515a4.718 4.718 0 0 1 3.416-1.48c1.29 0 2.519.539 3.416 1.48a5.098 5.098 0 0 1 1.39 3.515v.999c0 1.956.606 3.855 1.718 5.411a1 1 0 0 1-1.627 1.163 11.317 11.317 0 0 1-2.09-6.574v-.999c0-.81-.307-1.577-.84-2.135a2.718 2.718 0 0 0-1.967-.86zm0 1.995a1 1 0 0 1 1 1v1.999a13.47 13.47 0 0 0 2.213 7.437 1 1 0 1 1-1.668 1.104 15.469 15.469 0 0 1-2.545-8.543m-2.918 1.004a1 1 0 0 1 1.105.883c.22 1.977.77 3.896 1.621 5.671a1 1 0 1 1-1.803.866 19.642 19.642 0 0 1-1.806-6.315 1 1 0 0 1 .883-1.105z"
  />
</svg>
